X: 602
T:Cairngorm Mountain
T:An carn gorm
R:Slow Air
S:Simon Fraser Collection
N:No.154
N:transposed from G
N:Posted to the woodenflute mailing list November 2002
O:Scottish
M:6/8
L:1/8
Q:3/8=60
Z:Hans Bracker
N:http://hans.members.beeb.net/ABC-Music.htm
K:D
(3d/c/B/|AFA AFA|AFG A2 d/&gt;c/|(Bdc) B&gt;AB/c/|d&gt;ef f2 (e/d/)|
efa b&gt;c'd'/b/|afd d&gt;ef/g/|fba f&gt;ef/e/|dBB B2:|
(f/g/)|~a&gt;ba afa|b&gt;d'b b2 (a/g/)|f2 (e/d/) d'(c'b)|f2 e d2 (b/c'/)|
d'&gt;c'b baf|afe f2d|efa b&gt;^ab|dBB B2 (f/g/)|~a&gt;ba a&lt;fa|a&lt;fa a2 (d'/c'/)|
(bd')c' b&gt;ab/c'/|d'2c' b2d'|(d&gt;ef/g/8a/8b/8c'/8 d'2) (c'/b/)|
a&lt;fe d&gt;(ef/g/)|f&lt;ba f&gt;ef/e/|dBB B2||

